!!!OTL: Bihai qingtian feilai chuan
!!!ARE: Asia, China,ÿGuangxi, Beihai
!! II, 522
!!!SCT: C1526
!!!YEM: Copyright 1995, estate of Helmut Schaffrath.
**kern
*ICvox
*Ivox
*M2/4
*k[b-e-]
*B-:
{8ddd
8ccc
8fff
8fff
=1
4.ddd
32ccc
32ddd
32ccc
32bb-
=2
[2ccc
=3
4ccc]}
{8.ccc
16gg
=4
8gg
4bb-
32ccc
32ddd
32ccc
32bb-
=5
2ccc}
=6
{8ccc
16gg
16gg
8gg
16gg
16bb-
=7
8ccc
8bb-
16gg
16ff
[8ff
=8
4.ff]
16gg
16ff
=9
2dd}
=10
{8.ff
16ff
8gg
8ff
=11
8gg
8ff
16cc
16dd
8ff}
=12
{8ccc
8gg
8ccc
8bb-
=13
8gg
8ccc
16ccc
16gg
8ff}
=14
{16fff
16ggg
8ddd
8ddd
8ggg
=15
8ccc
8fff
8ggg
[8fff
=16
4.fff]
8ddd}
=17
{8ccc
8ccc
8gg
8gg
=18
8ccc
8bb-
8gg
[8bb-
=19
4.bb-]
8ccc}
=20
{8ddd
8ccc
16bb-
16r
32gg
32bb-
32gg
32ff
=21
4.ff
16gg
16ff
=22
2dd}
==
!!!AGN: Xiaodiao, Xianshuige
!!!AMT: simple duple
!!!AIN: vox
!!!EED: Helmut Schaffrath
!!!EEV: 1.0
*-
!!!ONB: Tied note syntax fixed by Craig Sapp, 2004/05/03/
